X:164
%%etbk:tnset id:64,pos:4,rep:3x+A-Stop,ant:
%%etbk:tnset id:54,pos:6,rep:3x,ant:
%%etbk:wsite http://www.thesession.org/tunes/display/11
%%etbk:skill ?
%%etbk:pldat 2013-10-30T15:39,2013-10-28T18:21,2013-10-24T18:52,2013-10-18T16:05,2013-10-14T18:46,2013-10-09T16:20,2013-08-29T16:39
T: Boys Of Malin, The
Z: Piano Box Version by Martin Fleischmann
H: Created 2013-02-19 /  Last Modified 2013-02-19
M: 4/4
L: 1/8
R: reel
K: Amaj
|: "A"!1!ABcd !5!e!1!A!3!c!5!e | "D"!3!fedf !2!e!1!d!3!cB | "A"!1!ABcd !5!e!1!A!3!c!5!e |1 "E"!3!f!1!d!2!Bc !4!d2cB:|2 "E"!3!f!1!d!2!B!3!c !1!def!4!g||
| "A"!5!a2!1!AA !2!c!1!A!2!c!3!e | !5!a2ag !3!fefg | !5!a!1!A !3!(3A!2!A!1!A !3!c!1!A!3!c!5!e | "E"!4!dc!2!B!3!c !1!def!4!g |
"A"!5!a2!1!AA !2!c!1!A!2!c!3!e | !5!a2ag !3!fefg  | !5!a2!4!ge !3!fd!4!e!2!c | "E"!4!ddBc d2!3!cB |
|: "A"!1!A!4!e!2!ce Aece | Aec!4!e "D"!4!d2cB | "A"!1!A!4!e!2!ce Aec!4!e | "E"!3!f!1!d!2!B!3!c !4!ddcB:|
